X:146
T:Come Back Paddy Reilly
C:Ask John
S:John Winston
L:1/8
R:Waltz
M:3/4
K:G
Bc |: d3e d2 | B2 A2 G2 | E3G E2 | D4 GA |
B2 G2 e2 | d2 B2 G2 | (A6 | A4) Bc |
d3e d2 | B2 A2 G2 | E2 G2 E2 | D4 GA
B2 d2 B2 | A2 G2 BA | (G6 | G4) cd |
e6 | e2 c2 e2 | e2 d3B | d3A Bc |
d3e d2 | B2 A2 G2 | E2 G2 E2 | D4 GA |
B2 d2 B2 | A2 G2 BA | (G6 | G4) :|

